X: 12
T: Within A Mile Of Dublin
Z: Andrea Abler
S: https://thesession.org/tunes/125#setting53147
R: reel
M: 4/4
L: 1/8
K: Emin
GA|:BE (3EEE GFGA|BE (3EEE d2 cA|BE (3EEE GFGA|BedB A2GA:|
Beed BAGA|Beef gegd|Beed BAGA|BcdB A2GA|
|Beed BAGA|Beefg2ga|bg (3agf gefd|edBGA2GA||

%-------------------- TUNE SEPARATOR --------------------%

